dist/images/icons/tel.svg

<svg width="17" height="16" viewBox="0 0 17 16" fill="none" xmlns="http://www.w3.org/2000/svg">
<path d="M16.0646 11.7424L13.8317 9.50954C13.0343 8.71209 11.6786 9.0311 11.3596 10.0678C11.1204 10.7855 10.323 11.1842 9.60526 11.0247C8.01037 10.626 5.85726 8.5526 5.45854 6.87797C5.21931 6.16024 5.69778 5.36279 6.41548 5.12359C7.45216 4.80461 7.77113 3.44895 6.97369 2.65151L4.74084 0.418659C4.10288 -0.139553 3.14595 -0.139553 2.58774 0.418659L1.07259 1.93381C-0.442555 3.5287 1.23208 7.75516 4.98007 11.5032C8.72807 15.2511 12.9545 17.0056 14.5494 15.4106L16.0646 13.8955C16.6228 13.2575 16.6228 12.3006 16.0646 11.7424Z" fill="#93AF99"/>
</svg>

<svg width="17" height="16" fill="none" xmlns="http://www.w3.org/2000/svg"><path d="M16.065 11.742L13.832 9.51c-.798-.798-2.153-.479-2.472.558-.24.718-1.037 1.116-1.755.957-1.595-.399-3.748-2.472-4.146-4.147-.24-.718.239-1.515.956-1.754 1.037-.32 1.356-1.675.559-2.472L4.74.419c-.638-.559-1.595-.559-2.153 0L1.073 1.934c-1.516 1.595.16 5.821 3.907 9.57 3.748 3.747 7.974 5.502 9.57 3.907l1.515-1.515c.558-.639.558-1.595 0-2.154z" fill="#93AF99"/></svg>
